packages/assets/static/images/icons/eye.svg

<svg width="24" height="24" viewBox="0 0 24 24" xmlns="http://www.w3.org/2000/svg" fill="currentColor" aria-hidden="true"> <g clip-path="url(#clip0_2001_46572)"> <path d="M23.0311 11.5434C22.9964 11.4675 22.1752 9.64406 20.3611 7.83C17.9339 5.40656 14.8749 4.125 11.4999 4.125C8.12488 4.125 5.06582 5.40656 2.64144 7.83C0.82738 9.64406 0.00612979 11.4675 -0.0313702 11.5434C-0.0948829 11.6874 -0.127686 11.8431 -0.127686 12.0005C-0.127686 12.1579 -0.0948829 12.3135 -0.0313702 12.4575C0.00331728 12.5344 0.824567 14.3569 2.63957 16.1709C5.06582 18.5944 8.12488 19.875 11.4999 19.875C14.8749 19.875 17.9339 18.5944 20.3574 16.1709C22.1724 14.3569 22.9936 12.5344 23.0283 12.4575C23.0923 12.3137 23.1256 12.1581 23.126 12.0008C23.1265 11.8434 23.0942 11.6876 23.0311 11.5434ZM18.713 14.6372C16.7002 16.6191 14.2739 17.625 11.4999 17.625C8.72582 17.625 6.29957 16.6191 4.28957 14.6362C3.49864 13.8537 2.81829 12.9667 2.26738 12C2.81845 11.0337 3.49879 10.1471 4.28957 9.36469C6.3005 7.38094 8.72582 6.375 11.4999 6.375C14.2739 6.375 16.6993 7.38094 18.7102 9.36469C19.5011 10.147 20.1814 11.0336 20.7324 12C20.1814 12.9666 19.501 13.8536 18.7102 14.6362L18.713 14.6372ZM11.4999 7.875C10.684 7.875 9.88651 8.11693 9.20815 8.57019C8.5298 9.02345 8.00109 9.66769 7.68888 10.4214C7.37667 11.1752 7.29498 12.0046 7.45414 12.8047C7.61331 13.6049 8.00617 14.3399 8.58306 14.9168C9.15996 15.4937 9.89496 15.8866 10.6951 16.0457C11.4953 16.2049 12.3247 16.1232 13.0784 15.811C13.8322 15.4988 14.4764 14.9701 14.9297 14.2917C15.383 13.6134 15.6249 12.8158 15.6249 12C15.6236 10.9064 15.1886 9.85787 14.4153 9.08455C13.642 8.31124 12.5935 7.87624 11.4999 7.875ZM11.4999 13.875C11.129 13.875 10.7665 13.765 10.4582 13.559C10.1498 13.353 9.90952 13.0601 9.76761 12.7175C9.62569 12.3749 9.58856 11.9979 9.66091 11.6342C9.73325 11.2705 9.91183 10.9364 10.1741 10.6742C10.4363 10.412 10.7704 10.2334 11.1341 10.161C11.4978 10.0887 11.8748 10.1258 12.2174 10.2677C12.56 10.4096 12.8529 10.65 13.0589 10.9583C13.2649 11.2666 13.3749 11.6292 13.3749 12C13.3749 12.4973 13.1773 12.9742 12.8257 13.3258C12.4741 13.6775 11.9972 13.875 11.4999 13.875Z"/> </g> <defs> <clipPath id="clip0_2001_46572"> <rect width="24" height="24"/> </clipPath> </defs> </svg>

<svg viewBox="0 0 24 24" xmlns="http://www.w3.org/2000/svg" aria-hidden="true" fill="currentColor"><g clip-path="url(#a)"><path d="M23.031 11.543c-.035-.075-.856-1.899-2.67-3.713-2.427-2.423-5.486-3.705-8.861-3.705S5.066 5.407 2.64 7.83C.827 9.644.006 11.467-.03 11.543a1.13 1.13 0 0 0 0 .915c.034.076.856 1.899 2.67 3.713 2.427 2.423 5.486 3.704 8.86 3.704 3.376 0 6.435-1.28 8.858-3.704 1.815-1.814 2.637-3.637 2.671-3.713a1.13 1.13 0 0 0 .003-.915m-4.318 3.094c-2.013 1.982-4.44 2.988-7.213 2.988-2.774 0-5.2-1.006-7.21-2.989A12.2 12.2 0 0 1 2.267 12 12.2 12.2 0 0 1 4.29 9.365c2.01-1.984 4.436-2.99 7.21-2.99s5.2 1.006 7.21 2.99A12.2 12.2 0 0 1 20.732 12a12.2 12.2 0 0 1-2.022 2.636zM11.5 7.875a4.125 4.125 0 1 0 0 8.25 4.125 4.125 0 0 0 0-8.25m0 6a1.875 1.875 0 1 1 0-3.75 1.875 1.875 0 0 1 0 3.75"/></g><defs><clipPath id="a"><path d="M0 0h24v24H0z"/></clipPath></defs></svg>
